X:1
T:Psalm
T:Knut Håkanson (1887-1929)
T:Vart flyr jag
T:Op 32 nr 6
%%score { ( 1 2 ) | ( 3 4 ) }
L:1/8
Q:1/4=120
M:3/2
K:Eb
V:1 treble nm="Vocals"
V:2 treble 
V:3 bass 
V:4 bass 
V:1
 c2 B2 |"^Instrument change" G4 F4 G4 |"^Instrument change" B4"^Instrument change" c4 d4 | %3
"^Instrument change" e4"^Instrument change" d4 c4 | %4
"^Instrument change"{/!fermata!=B} !fermata!c8"^Instrument change" d4 | %5
"^Instrument change" e4"^Instrument change" d4 c4 | %6
"^Instrument change" =B4"^Instrument change" c4 d2 B2 | %7
"^Instrument change" c4"^Instrument change" !fermata!c4 :|"^Instrument change"{/F} G4 | %9
"^Instrument change" B3 c/d/ c4 B2 A2 |"^Instrument change" G4"^Instrument change" E4 F4 | %11
"^Instrument change" B/ A7/2"^Instrument change" !fermata!G4 z4 |] %12
V:2
 G4 | E4 C4 E4 | D4 F4 F4 | G4 F4 F4 | !fermata!E8 F4 | G4 F4 E4 | F4 G4 G4 | F4 !fermata!E4 :| %8
w: Vart|flyr jag för|Gud och hans|e- vi- ga|lag? Den|drab- bar mig|nä- ra och|fjär- ran.|
w: Hur|skall jag på|do- mens för-|fär- li- ga|dag väl|kun- na be-|stå in- för|Her- ran?|
 E4 | D3 =E F4 F4 | E4 C4 C4 | F2 E2 !fermata!D4 z4 |] %12
w: ||||
w: Gud|va- re mig syn-|da- re nå-|dig! _ _|
V:3
 E4 | B,4 A,4 C4 | B,4 A,4 B,4 | B,4 B,4 A,4 | !fermata!G,8 B,4 | B,4 B,4 G,4 | D4 C4 =B,2 G,2 | %7
 G,4 !fermata!C4 :| B,4 | B,4 A,4 B,4 | B,4 A,4 A,4 | C4 !fermata!=B,4 z4 |] %12
V:4
 C,4 | E,4 F,4 C,4 | G,4 F,4 B,4 | E,4 B,,4 F,4 | !fermata!C,8 B,,4 | G,,4 B,,4 C,4 | D,4 E,4 G,4 | %7
 C,4 !fermata!C4 :| E,4 | B,,4 F,4 D,4 | E,4 A,4 A,4 | F,4 !fermata!G,4 z4 |] %12

